images/logo.svg

<svg width="237" height="110" viewBox="0 0 237 110" fill="none" xmlns="http://www.w3.org/2000/svg">
<g clip-path="url(#clip0)">
<path d="M112.69 26.3599C113.69 26.3599 116.16 26.4499 119.13 26.7199V12.4399L112.69 26.3599Z" fill="white"/>
<path d="M120.13 26.8199C124.025 27.1275 127.867 27.9134 131.57 29.1599C129.74 26.5199 125.27 20.1599 120.13 13.4399V26.8199Z" fill="white"/>
<path d="M115.89 8.0498L112.73 15.0498C113.047 18.4293 112.946 21.8349 112.43 25.1898L118.7 11.5998C117.774 10.4198 116.837 9.24314 115.89 8.06981" fill="white"/>
<path d="M115.36 7.40001C113.83 5.51001 112.29 3.69 110.79 2C111.08 3.33 111.74 6.49001 112.24 10.31H114.04L115.36 7.40001Z" fill="white"/>
<path d="M136.42 29.71L135.95 31.3C132.784 32.4521 129.439 33.0311 126.07 33.01H120.13V13.44C125.27 20.14 129.74 26.52 131.57 29.16L132.45 30.44L133.17 29.95C133.08 29.82 127.12 21.06 120.17 12.01V8.01001H119.17V10.69C116.17 6.9 113.1 3.13 110.17 0L109.53 0.590012L110.79 1.97C112.29 3.66 113.79 5.48001 115.36 7.37001L114.04 10.28H107.32V13.79H112.43L103.72 32.97C102.14 32.97 100.72 32.4 100.72 30.84C100.681 30.4894 100.746 30.135 100.906 29.8206C101.066 29.5061 101.314 29.2452 101.62 29.07L100.74 27.48C99.7004 29.1592 99.2045 31.1184 99.3202 33.09C99.2608 34.6073 99.6806 36.1048 100.52 37.37H134.9C136.9 35.84 137.12 29.68 137.12 29.68L136.42 29.71ZM104.54 33.01L112.73 15.01L115.89 8.01001C116.83 9.18334 117.767 10.36 118.7 11.54L112.43 25.1L108.79 32.97L104.54 33.01ZM119.13 33.01H109.62L112.69 26.36L119.13 12.44V33.01Z" fill="white"/>
<path d="M136.42 29.71L135.95 31.3C132.784 32.4521 129.439 33.0311 126.07 33.01H120.13V13.44C125.27 20.14 129.74 26.52 131.57 29.16L132.45 30.44L133.17 29.95C133.08 29.82 127.12 21.06 120.17 12.01V8.01001H119.17V10.69C116.17 6.9 113.1 3.13 110.17 0L109.53 0.590012L110.79 1.97C112.29 3.66 113.79 5.48001 115.36 7.37001L114.04 10.28H107.32V13.79H112.43L103.72 32.97C102.14 32.97 100.72 32.4 100.72 30.84C100.681 30.4894 100.746 30.135 100.906 29.8206C101.066 29.5061 101.314 29.2452 101.62 29.07L100.74 27.48C99.7004 29.1592 99.2045 31.1184 99.3202 33.09C99.2608 34.6073 99.6806 36.1048 100.52 37.37H134.9C136.9 35.84 137.12 29.68 137.12 29.68L136.42 29.71ZM104.54 33.01L112.73 15.01L115.89 8.01001C116.83 9.18334 117.767 10.36 118.7 11.54L112.43 25.1L108.79 32.97L104.54 33.01ZM119.13 33.01H109.62L112.69 26.36L119.13 12.44V33.01Z" fill="white"/>
<path d="M42.4601 57.8598C41.9248 57.1928 41.2395 56.6617 40.4601 56.3098C39.5791 55.9335 38.6279 55.7495 37.6701 55.7698C36.6609 55.7595 35.6614 55.9676 34.7401 56.3798C33.8505 56.7823 33.0539 57.3645 32.4001 58.0898C31.7196 58.8514 31.1932 59.7378 30.8501 60.6998C30.1038 62.8262 30.1038 65.1434 30.8501 67.2698C31.1918 68.2221 31.7109 69.101 32.3801 69.8598C33.0158 70.5791 33.7916 71.161 34.6601 71.5698C35.5467 71.9801 36.5133 72.1884 37.4901 72.1798C38.5544 72.2005 39.6067 71.9529 40.5501 71.4598C41.4362 70.9834 42.1917 70.2966 42.7501 69.4598L47.4301 72.9498C46.3955 74.4243 44.973 75.5838 43.3201 76.2998C41.7102 77.0105 39.9699 77.3783 38.2101 77.3798C36.3318 77.401 34.4651 77.0825 32.7001 76.4398C31.0816 75.8544 29.6008 74.9422 28.3501 73.7598C27.1031 72.5703 26.1246 71.1281 25.4801 69.5298C24.1199 65.9582 24.1199 62.0113 25.4801 58.4398C26.1297 56.8442 27.1076 55.403 28.3501 54.2098C29.6008 53.0274 31.0816 52.1151 32.7001 51.5298C34.4607 50.8974 36.3195 50.5826 38.1901 50.5998C38.9443 50.6045 39.6969 50.6714 40.4401 50.7998C41.2262 50.931 41.9969 51.1421 42.7401 51.4298C43.5109 51.723 44.243 52.1092 44.9201 52.5798C45.6302 53.0708 46.2609 53.6677 46.7901 54.3498L42.4601 57.8598Z" fill="white"/>
<path d="M42.4601 57.8598C41.9248 57.1928 41.2395 56.6617 40.4601 56.3098C39.5791 55.9335 38.6279 55.7495 37.6701 55.7698C36.6609 55.7595 35.6614 55.9676 34.7401 56.3798C33.8505 56.7823 33.0539 57.3645 32.4001 58.0898C31.7196 58.8514 31.1932 59.7378 30.8501 60.6998C30.1038 62.8262 30.1038 65.1434 30.8501 67.2698C31.1918 68.2221 31.7109 69.101 32.3801 69.8598C33.0158 70.5791 33.7916 71.161 34.6601 71.5698C35.5467 71.9801 36.5133 72.1884 37.4901 72.1798C38.5544 72.2005 39.6067 71.9529 40.5501 71.4598C41.4362 70.9834 42.1917 70.2966 42.7501 69.4598L47.4301 72.9498C46.3955 74.4243 44.973 75.5838 43.3201 76.2998C41.7102 77.0105 39.9699 77.3783 38.2101 77.3798C36.3318 77.401 34.4651 77.0825 32.7001 76.4398C31.0816 75.8544 29.6008 74.9422 28.3501 73.7598C27.1031 72.5703 26.1246 71.1281 25.4801 69.5298C24.1199 65.9582 24.1199 62.0113 25.4801 58.4398C26.1297 56.8442 27.1076 55.403 28.3501 54.2098C29.6008 53.0274 31.0816 52.1151 32.7001 51.5298C34.4607 50.8974 36.3195 50.5826 38.1901 50.5998C38.9443 50.6045 39.6969 50.6714 40.4401 50.7998C41.2262 50.931 41.9969 51.1421 42.7401 51.4298C43.5109 51.723 44.243 52.1092 44.9201 52.5798C45.6302 53.0708 46.2609 53.6677 46.7901 54.3498L42.4601 57.8598Z" fill="white"/>
<path d="M71.3301 51.2402H76.9501V60.7402H87.8601V51.2402H93.4701V76.7202H87.8601V65.7102H76.9501V76.7202H71.3301V51.2402Z" fill="white"/>
<path d="M71.3301 51.2402H76.9501V60.7402H87.8601V51.2402H93.4701V76.7202H87.8601V65.7102H76.9501V76.7202H71.3301V51.2402Z" fill="white"/>
<path d="M125.08 51.2402H119.46V76.7302H125.08V51.2402Z" fill="white"/>
<path d="M125.08 51.2402H119.46V76.7302H125.08V51.2402Z" fill="white"/>
<path d="M151.29 51.2402H168.6V56.4202H156.9V61.1702H167.96V66.3602H156.9V71.5402H169.25V76.7202H151.29V51.2402Z" fill="white"/>
<path d="M151.29 51.2402H168.6V56.4202H156.9V61.1702H167.96V66.3602H156.9V71.5402H169.25V76.7202H151.29V51.2402Z" fill="white"/>
<path d="M194.85 51.2402H211.95V56.4202H200.46V61.6002H211.08V66.7902H200.46V76.7202H194.85V51.2402Z" fill="white"/>
<path d="M194.85 51.2402H211.95V56.4202H200.46V61.6002H211.08V66.7902H200.46V76.7202H194.85V51.2402Z" fill="white"/>
<path d="M42.0898 109.39H39.5698L45.5798 95.1499H47.7698L53.7698 109.39H51.1198L46.6098 98.3799L42.0898 109.39Z" fill="white"/>
<path d="M61.9902 109.39V95.1899H66.3102C70.1902 95.1899 71.4702 97.1199 71.4702 99.5699C71.508 100.451 71.2623 101.321 70.7691 102.051C70.2759 102.782 69.5612 103.335 68.7302 103.63L73.1702 109.43H70.1702L66.1902 104.08H64.4902V109.39H61.9902ZM64.4902 97.52V101.74H66.1102C67.5502 101.74 68.8302 101.01 68.8302 99.55C68.8302 98.44 68.2202 97.4799 66.1902 97.4799C65.7302 97.4799 65.1902 97.4799 64.4902 97.4799" fill="white"/>
<path d="M78.9302 95.2002H90.6302V97.5302H86.0302V109.39H83.5302V97.5302H78.9302V95.2002Z" fill="white"/>
<path d="M98.8901 95.2002H107.1V97.5302H101.38V101.06H106.49V103.39H101.38V107.06H107.31V109.39H98.8901V95.2002Z" fill="white"/>
<path d="M115.89 95.2002H126.68V96.9202L118.81 107.06H126.88V109.39H115.48V107.69L123.33 97.5302H115.89V95.2002Z" fill="white"/>
<path d="M138.54 95.1899H136.05V109.39H138.54V95.1899Z" fill="white"/>
<path d="M154.08 98.3799L149.56 109.39H147.05L153.05 95.1499H155.24L161.25 109.39H158.59L154.08 98.3799Z" fill="white"/>
<path d="M179.6 109.39L171.79 99.5602V109.39H169.46V95.2002H171.45L179.26 105.07V95.2002H181.59V109.39H179.6Z" fill="white"/>
<path d="M194.41 95.1899H191.92V109.39H194.41V95.1899Z" fill="white"/>
<path d="M215.55 108.01C214.295 109.102 212.672 109.674 211.01 109.61C210.034 109.666 209.057 109.516 208.143 109.168C207.229 108.82 206.399 108.283 205.708 107.592C205.017 106.9 204.479 106.07 204.132 105.157C203.784 104.243 203.633 103.266 203.69 102.29C203.69 98.2098 206.26 94.9698 210.95 94.9698C212.517 94.9086 214.053 95.4205 215.27 96.4098L214.19 98.2498C213.25 97.6037 212.13 97.2712 210.99 97.2998C208.35 97.2998 206.36 99.2098 206.36 102.3C206.32 102.96 206.419 103.621 206.651 104.24C206.883 104.86 207.243 105.423 207.707 105.895C208.171 106.366 208.729 106.735 209.344 106.977C209.96 107.219 210.619 107.329 211.28 107.3C212.495 107.3 213.676 106.899 214.64 106.16L215.55 108.01Z" fill="white"/>
<path d="M224.68 109.39H222.16L228.17 95.1499H230.36L236.36 109.39H233.7L229.2 98.3799L224.68 109.39Z" fill="white"/>
<path d="M0.0100098 95.1699H5.55C6.08549 95.1727 6.61892 95.2365 7.14 95.3599C7.64179 95.481 8.11658 95.6947 8.54001 95.9899C8.95085 96.282 9.29228 96.6609 9.54001 97.0999C9.80462 97.6088 9.93537 98.1766 9.92 98.7499C9.95087 99.4781 9.70833 100.191 9.24001 100.75C8.76314 101.289 8.14211 101.681 7.45 101.88C7.88148 101.931 8.30094 102.056 8.69 102.25C9.43225 102.62 10.0047 103.261 10.29 104.04C10.4488 104.444 10.5269 104.876 10.52 105.31C10.556 105.942 10.4197 106.571 10.1255 107.131C9.83135 107.691 9.39046 108.161 8.85001 108.49C8.3179 108.817 7.73222 109.047 7.12 109.17C6.46167 109.303 5.79166 109.37 5.12 109.37H0L0.0100098 95.1699ZM2.54001 100.95H4.85001C5.51996 101 6.18762 100.827 6.75 100.46C6.95125 100.312 7.11366 100.117 7.22336 99.8922C7.33306 99.6676 7.3868 99.4198 7.38 99.1699C7.3979 98.9036 7.3476 98.6371 7.23387 98.3957C7.12014 98.1542 6.94671 97.9457 6.73 97.7899C6.08763 97.4416 5.35867 97.2854 4.63 97.3399H2.54001V100.95ZM2.54001 107.22H4.87C5.20414 107.217 5.53791 107.197 5.87 107.16C6.21674 107.124 6.55484 107.029 6.87 106.88C7.17199 106.737 7.43329 106.52 7.63 106.25C7.84551 105.918 7.95051 105.526 7.93001 105.13C7.96267 104.828 7.91187 104.523 7.78316 104.248C7.65444 103.973 7.45273 103.738 7.2 103.57C6.49266 103.222 5.70632 103.067 4.92 103.12H2.49001L2.54001 107.22Z" fill="white"/>
<path d="M20.1 103.31L14.77 95.1802H17.94L21.43 100.84L24.96 95.1802H27.97L22.64 103.31V109.39H20.1V103.31Z" fill="white"/>
</g>
<defs>
<clipPath id="clip0">
<rect width="236.35" height="109.59" fill="white"/>
</clipPath>
</defs>
</svg>

<svg width="237" height="110" fill="none" xmlns="http://www.w3.org/2000/svg"><g clip-path="url(#clip0)" fill="#fff"><path d="M112.69 26.36c1 0 3.47.09 6.44.36V12.44l-6.44 13.92zm7.44.46a47.606 47.606 0 0111.44 2.34c-1.83-2.64-6.3-9-11.44-15.72v13.38zm-4.24-18.77l-3.16 7c.317 3.38.216 6.785-.3 10.14l6.27-13.59a329.659 329.659 0 00-2.81-3.53m-.53-.67c-1.53-1.89-3.07-3.71-4.57-5.4.29 1.33.95 4.49 1.45 8.31h1.8l1.32-2.91z"/><path d="M136.42 29.71l-.47 1.59a28.37 28.37 0 01-9.88 1.71h-5.94V13.44c5.14 6.7 9.61 13.08 11.44 15.72l.88 1.28.72-.49c-.09-.13-6.05-8.89-13-17.94v-4h-1v2.68c-3-3.79-6.07-7.56-9-10.69l-.64.59 1.26 1.38c1.5 1.69 3 3.51 4.57 5.4l-1.32 2.91h-6.72v3.51h5.11l-8.71 19.18c-1.58 0-3-.57-3-2.13a1.807 1.807 0 01.9-1.77l-.88-1.59a9.59 9.59 0 00-1.42 5.61 7.23 7.23 0 001.2 4.28h34.38c2-1.53 2.22-7.69 2.22-7.69l-.7.03zm-31.88 3.3l8.19-18 3.16-7c.94 1.173 1.877 2.35 2.81 3.53l-6.27 13.56-3.64 7.87-4.25.04zm14.59 0h-9.51l3.07-6.65 6.44-13.92v20.57z"/><path d="M136.42 29.71l-.47 1.59a28.37 28.37 0 01-9.88 1.71h-5.94V13.44c5.14 6.7 9.61 13.08 11.44 15.72l.88 1.28.72-.49c-.09-.13-6.05-8.89-13-17.94v-4h-1v2.68c-3-3.79-6.07-7.56-9-10.69l-.64.59 1.26 1.38c1.5 1.69 3 3.51 4.57 5.4l-1.32 2.91h-6.72v3.51h5.11l-8.71 19.18c-1.58 0-3-.57-3-2.13a1.807 1.807 0 01.9-1.77l-.88-1.59a9.59 9.59 0 00-1.42 5.61 7.23 7.23 0 001.2 4.28h34.38c2-1.53 2.22-7.69 2.22-7.69l-.7.03zm-31.88 3.3l8.19-18 3.16-7c.94 1.173 1.877 2.35 2.81 3.53l-6.27 13.56-3.64 7.87-4.25.04zm14.59 0h-9.51l3.07-6.65 6.44-13.92v20.57zM42.46 57.86a5.429 5.429 0 00-2-1.55 6.74 6.74 0 00-2.79-.54 7 7 0 00-2.93.61 7.08 7.08 0 00-2.34 1.71 7.9 7.9 0 00-1.55 2.61 9.92 9.92 0 000 6.57 8 8 0 001.53 2.59 7.05 7.05 0 002.28 1.71 6.6 6.6 0 002.83.61 6.34 6.34 0 003.06-.72 6.14 6.14 0 002.2-2l4.68 3.49a9.76 9.76 0 01-4.11 3.35 12.68 12.68 0 01-5.11 1.08 15.59 15.59 0 01-5.51-.94 12.541 12.541 0 01-4.35-2.68 12.1 12.1 0 01-2.87-4.23 15.58 15.58 0 010-11.09 12.29 12.29 0 012.87-4.23 12.54 12.54 0 014.35-2.68 15.81 15.81 0 015.49-.93c.754.005 1.507.071 2.25.2.786.131 1.557.342 2.3.63.77.293 1.503.68 2.18 1.15a8.448 8.448 0 011.87 1.77l-4.33 3.51z"/><path d="M42.46 57.86a5.429 5.429 0 00-2-1.55 6.74 6.74 0 00-2.79-.54 7 7 0 00-2.93.61 7.08 7.08 0 00-2.34 1.71 7.9 7.9 0 00-1.55 2.61 9.92 9.92 0 000 6.57 8 8 0 001.53 2.59 7.05 7.05 0 002.28 1.71 6.6 6.6 0 002.83.61 6.34 6.34 0 003.06-.72 6.14 6.14 0 002.2-2l4.68 3.49a9.76 9.76 0 01-4.11 3.35 12.68 12.68 0 01-5.11 1.08 15.59 15.59 0 01-5.51-.94 12.541 12.541 0 01-4.35-2.68 12.1 12.1 0 01-2.87-4.23 15.58 15.58 0 010-11.09 12.29 12.29 0 012.87-4.23 12.54 12.54 0 014.35-2.68 15.81 15.81 0 015.49-.93c.754.005 1.507.071 2.25.2.786.131 1.557.342 2.3.63.77.293 1.503.68 2.18 1.15a8.448 8.448 0 011.87 1.77l-4.33 3.51zm28.87-6.62h5.62v9.5h10.91v-9.5h5.61v25.48h-5.61V65.71H76.95v11.01h-5.62V51.24z"/><path d="M71.33 51.24h5.62v9.5h10.91v-9.5h5.61v25.48h-5.61V65.71H76.95v11.01h-5.62V51.24zm53.75 0h-5.62v25.49h5.62V51.24z"/><path d="M125.08 51.24h-5.62v25.49h5.62V51.24zm26.21 0h17.31v5.18h-11.7v4.75h11.06v5.19H156.9v5.18h12.35v5.18h-17.96V51.24z"/><path d="M151.29 51.24h17.31v5.18h-11.7v4.75h11.06v5.19H156.9v5.18h12.35v5.18h-17.96V51.24zm43.56 0h17.1v5.18h-11.49v5.18h10.62v5.19h-10.62v9.93h-5.61V51.24z"/><path d="M194.85 51.24h17.1v5.18h-11.49v5.18h10.62v5.19h-10.62v9.93h-5.61V51.24zM42.09 109.39h-2.52l6.01-14.24h2.19l6 14.24h-2.65l-4.51-11.01-4.52 11.01zm19.9 0v-14.2h4.32c3.88 0 5.16 1.93 5.16 4.38a4.117 4.117 0 01-2.74 4.06l4.44 5.8h-3l-3.98-5.35h-1.7v5.31h-2.5zm2.5-11.87v4.22h1.62c1.44 0 2.72-.73 2.72-2.19 0-1.11-.61-2.07-2.64-2.07h-1.7m14.44-2.28h11.7v2.33h-4.6v11.86h-2.5V97.53h-4.6V95.2zm19.96 0h8.21v2.33h-5.72v3.53h5.11v2.33h-5.11v3.67h5.93v2.33h-8.42V95.2zm17 0h10.79v1.72l-7.87 10.14h8.07v2.33h-11.4v-1.7l7.85-10.16h-7.44V95.2zm22.65-.01h-2.49v14.2h2.49v-14.2zm15.54 3.19l-4.52 11.01h-2.51l6-14.24h2.19l6.01 14.24h-2.66l-4.51-11.01zm25.52 11.01l-7.81-9.83v9.83h-2.33V95.2h1.99l7.81 9.87V95.2h2.33v14.19h-1.99zm14.81-14.2h-2.49v14.2h2.49v-14.2zm21.14 12.82a6.532 6.532 0 01-4.54 1.6 6.94 6.94 0 01-5.302-2.018 6.935 6.935 0 01-2.018-5.302c0-4.08 2.57-7.32 7.26-7.32a6.45 6.45 0 014.32 1.44l-1.08 1.84a5.41 5.41 0 00-3.2-.95c-2.64 0-4.63 1.91-4.63 5a4.715 4.715 0 002.984 4.677 4.726 4.726 0 001.936.323 5.523 5.523 0 003.36-1.14l.91 1.85zm9.13 1.38h-2.52l6.01-14.24h2.19l6 14.24h-2.66l-4.5-11.01-4.52 11.01zM.01 95.17h5.54a7.06 7.06 0 011.59.19 4.15 4.15 0 011.4.63c.41.292.752.67 1 1.11a3.38 3.38 0 01.38 1.65 2.921 2.921 0 01-.68 2 3.787 3.787 0 01-1.79 1.13c.431.051.85.176 1.24.37a3.248 3.248 0 011.6 1.79c.159.404.237.836.23 1.27a3.488 3.488 0 01-1.67 3.18 5.296 5.296 0 01-1.73.68 10.1 10.1 0 01-2 .2H0l.01-14.2zm2.53 5.78h2.31a3.06 3.06 0 001.9-.49 1.547 1.547 0 00.63-1.29 1.57 1.57 0 00-.65-1.38 3.81 3.81 0 00-2.1-.45H2.54v3.61zm0 6.27h2.33a9.828 9.828 0 001-.06 3.086 3.086 0 001-.28 2 2 0 00.76-.63c.216-.332.32-.724.3-1.12a1.66 1.66 0 00-.73-1.56 4.482 4.482 0 00-2.28-.45H2.49l.05 4.1zm17.56-3.91l-5.33-8.13h3.17l3.49 5.66 3.53-5.66h3.01l-5.33 8.13v6.08H20.1v-6.08z"/></g><defs><clipPath id="clip0"><path fill="#fff" d="M0 0h236.35v109.59H0z"/></clipPath></defs></svg>
